Simply-Red-Circles/scalable/mimes/application-vnd.comicbook+zip.svg

<svg xmlns="http://www.w3.org/2000/svg" width="48" height="48" viewBox="0 0 12.7 12.7"><defs><linearGradient id="a" x1="3113.4" x2="3113.4" y1="1664.4" y2="1602.4" gradientTransform="translate(-3159.2 -1600.2)" gradientUnits="userSpaceOnUse"><stop stop-color="#4a575b" offset="0"/><stop stop-color="#556469" offset=".5"/><stop stop-color="#4c595e" offset=".516"/><stop stop-color="#556469" offset="1"/></linearGradient></defs><path d="M1.21.86L.14 3.66h6.04V.86H1.21zm5.18 0v2.8h6.11L11.4.86H6.39zM.19 3.88V10.2c0 .64.25 1.18.74 1.64.5.45 1.08.67 1.78.67h7.25c.7 0 1.28-.22 1.78-.67.49-.46.73-1 .73-1.64V3.9h-1.12v6.3c0 .36-.13.66-.4.91a1.4 1.4 0 0 1-.99.38H2.71a1.4 1.4 0 0 1-.99-.38 1.19 1.19 0 0 1-.41-.9V3.88H.19zm6.162 1.508c-.742 0-1.418.212-1.909.559-.491.347-.8.835-.8 1.377 0 .54.309 1.026.8 1.373.188.132.406.24.642.33-.1.44-.207.732-.567 1.253l-.146.207.234-.106c.64-.288 1.094-.619 1.522-1.135.074.006.148.01.224.01.742 0 1.414-.213 1.905-.56.491-.346.8-.831.8-1.372 0-.542-.309-1.03-.8-1.377-.491-.347-1.163-.559-1.905-.559z" fill="#a02c2c"/></svg>

<?xml version="1.0" encoding="UTF-8" standalone="no"?>
<svg
   xmlns:dc="http://purl.org/dc/elements/1.1/"
   xmlns:cc="http://creativecommons.org/ns#"
   xmlns:rdf="http://www.w3.org/1999/02/22-rdf-syntax-ns#"
   xmlns:svg="http://www.w3.org/2000/svg"
   xmlns="http://www.w3.org/2000/svg"
   xmlns:sodipodi="http://sodipodi.sourceforge.net/DTD/sodipodi-0.dtd"
   xmlns:inkscape="http://www.inkscape.org/namespaces/inkscape"
   width="48"
   height="48"
   viewBox="0 0 12.7 12.7"
   version="1.1"
   id="svg15"
   sodipodi:docname="application-vnd.comicbook+zip.svg"
   inkscape:version="0.92.4 (5da689c313, 2019-01-14)">
  <metadata
     id="metadata19">
    <rdf:RDF>
      <cc:Work
         rdf:about="">
        <dc:format>image/svg+xml</dc:format>
        <dc:type
           rdf:resource="http://purl.org/dc/dcmitype/StillImage" />
        <dc:title></dc:title>
      </cc:Work>
    </rdf:RDF>
  </metadata>
  <sodipodi:namedview
     pagecolor="#ffffff"
     bordercolor="#666666"
     borderopacity="1"
     objecttolerance="10"
     gridtolerance="10"
     guidetolerance="10"
     inkscape:pageopacity="0"
     inkscape:pageshadow="2"
     inkscape:window-width="1087"
     inkscape:window-height="480"
     id="namedview17"
     showgrid="false"
     inkscape:zoom="4.9166667"
     inkscape:cx="2.1355932"
     inkscape:cy="24"
     inkscape:window-x="0"
     inkscape:window-y="25"
     inkscape:window-maximized="0"
     inkscape:current-layer="svg15" />
  <defs
     id="defs11">
    <linearGradient
       id="a"
       x1="3113.4"
       x2="3113.4"
       y1="1664.4"
       y2="1602.4"
       gradientTransform="translate(-3159.2 -1600.2)"
       gradientUnits="userSpaceOnUse">
      <stop
         stop-color="#4a575b"
         offset="0"
         id="stop2" />
      <stop
         stop-color="#556469"
         offset=".5"
         id="stop4" />
      <stop
         stop-color="#4c595e"
         offset=".516"
         id="stop6" />
      <stop
         stop-color="#556469"
         offset="1"
         id="stop8" />
    </linearGradient>
  </defs>
  <path
     d="m 1.21,0.86 -1.07,2.8 h 6.04 v -2.8 z m 5.18,0 v 2.8 h 6.11 l -1.1,-2.8 z m -6.2,3.02 v 6.32 c 0,0.64 0.25,1.18 0.74000003,1.64 C 1.43,12.29 2.01,12.51 2.71,12.51 H 9.9600003 C 10.66,12.51 11.24,12.29 11.74,11.84 c 0.49,-0.46 0.73,-1 0.73,-1.64 V 3.9 h -1.12 v 6.3 c 0,0.36 -0.13,0.66 -0.4,0.91 A 1.4,1.4 0 0 1 9.9600003,11.49 H 2.71 A 1.4,1.4 0 0 1 1.72,11.11 1.19,1.19 0 0 1 1.31,10.21 V 3.88 Z m 6.162,1.508 c -0.742,0 -1.418,0.212 -1.909,0.559 -0.491,0.347 -0.8,0.835 -0.8,1.377 0,0.54 0.309,1.026 0.8,1.373 0.188,0.132 0.406,0.24 0.642,0.33 -0.1,0.44 -0.207,0.732 -0.567,1.253 L 4.372,10.487 4.606,10.381 C 5.246,10.093 5.7,9.762 6.128,9.246 c 0.074,0.006 0.148,0.01 0.224,0.01 0.742,0 1.414,-0.213 1.905,-0.56 0.491,-0.346 0.8,-0.831 0.8,-1.372 0,-0.542 -0.309,-1.03 -0.8,-1.377 C 7.766,5.6 7.094,5.388 6.352,5.388 Z"
     id="path13"
     inkscape:connector-curvature="0"
     style="fill:#a02c2c" />
</svg>
